images/social-be.svg

<svg width="41" height="40" viewBox="0 0 41 40" fill="none" xmlns="http://www.w3.org/2000/svg">
<g clip-path="url(#clip0)">
<path d="M34.3201 0H5.96036C2.72049 0 0.0847168 2.62848 0.0847168 5.85938V34.1406C0.0847168 37.3715 2.72049 40 5.96036 40H34.3201C37.56 40 40.1958 37.3715 40.1958 34.1406V5.85938C40.1958 2.62848 37.56 0 34.3201 0ZM37.8455 34.1406C37.8455 36.0791 36.264 37.6562 34.3201 37.6562H5.96036C4.0165 37.6562 2.43497 36.0791 2.43497 34.1406V5.85938C2.43497 3.9209 4.0165 2.34375 5.96036 2.34375H34.3201C36.264 2.34375 37.8455 3.9209 37.8455 5.85938V34.1406Z" fill="#070707" stroke="#070707" stroke-width="0.5"/>
<path d="M18.9651 16.4844C18.9651 13.8995 16.8566 11.7969 14.2646 11.7969H7.21387V28.2031H14.2646C16.8566 28.2031 18.9651 26.1005 18.9651 23.5156C18.9651 22.1167 18.3467 20.8597 17.3686 20C18.3467 19.1403 18.9651 17.8833 18.9651 16.4844ZM16.6149 23.5156C16.6149 24.808 15.5606 25.8594 14.2646 25.8594H9.56412V21.1719H14.2646C15.5606 21.1719 16.6149 22.2232 16.6149 23.5156ZM9.56412 18.8281V14.1406H14.2646C15.5606 14.1406 16.6149 15.192 16.6149 16.4844C16.6149 17.7768 15.5606 18.8281 14.2646 18.8281H9.56412Z" fill="#070707" stroke="#070707" stroke-width="0.5"/>
<path d="M27.1911 16.4844C23.9512 16.4844 21.3154 19.1129 21.3154 22.3438C21.3154 25.5746 23.9512 28.2031 27.1911 28.2031C29.2821 28.2031 31.2321 27.081 32.2799 25.2744L30.2455 24.1006C29.6163 25.1855 28.4458 25.8594 27.1911 25.8594C25.6588 25.8594 24.3521 24.8798 23.867 23.5156H33.0667V22.3438C33.0667 19.1129 30.4309 16.4844 27.1911 16.4844ZM23.867 21.1719C24.3521 19.8077 25.6588 18.8281 27.1911 18.8281C28.7233 18.8281 30.03 19.8077 30.5151 21.1719H23.867Z" fill="#070707" stroke="#070707" stroke-width="0.5"/>
<path d="M22.4905 11.7969H31.8915V14.1406H22.4905V11.7969Z" fill="#070707" stroke="#070707" stroke-width="0.5"/>
</g>
<defs>
<clipPath id="clip0">
<rect width="40.111" height="40" fill="white" transform="translate(0.0847168)"/>
</clipPath>
</defs>
</svg>

<svg width="41" height="40" fill="none" xmlns="http://www.w3.org/2000/svg"><g clip-path="url(#clip0)" fill="#070707" stroke="#070707" stroke-width=".5"><path d="M34.32 0H5.96C2.72 0 .085 2.628.085 5.86v28.28C.085 37.372 2.72 40 5.96 40h28.36c3.24 0 5.876-2.629 5.876-5.86V5.86C40.196 2.627 37.56 0 34.32 0zm3.526 34.14a3.525 3.525 0 01-3.526 3.516H5.96a3.525 3.525 0 01-3.525-3.515V5.859A3.525 3.525 0 015.96 2.344h28.36a3.525 3.525 0 013.526 3.515v28.282z"/><path d="M18.965 16.484c0-2.585-2.108-4.687-4.7-4.687H7.214v16.406h7.05c2.593 0 4.701-2.102 4.701-4.687A4.67 4.67 0 0017.37 20a4.67 4.67 0 001.596-3.516zm-2.35 7.032a2.35 2.35 0 01-2.35 2.343h-4.7v-4.687h4.7a2.35 2.35 0 012.35 2.344zm-7.05-4.688v-4.687h4.7a2.35 2.35 0 012.35 2.343 2.35 2.35 0 01-2.35 2.344h-4.7zm17.626-2.344c-3.24 0-5.876 2.629-5.876 5.86 0 3.23 2.636 5.86 5.876 5.86a5.9 5.9 0 005.089-2.93l-2.035-1.173a3.53 3.53 0 01-6.378-.585h9.2v-1.172c0-3.231-2.636-5.86-5.876-5.86zm-3.324 4.688a3.53 3.53 0 016.648 0h-6.648zm-1.377-9.375h9.402v2.344H22.49v-2.344z"/></g><defs><clipPath id="clip0"><path fill="#fff" transform="translate(.085)" d="M0 0h40.111v40H0z"/></clipPath></defs></svg>
